X: 4
T: De tous biens plaine
N: Derived from Jap3004-De_tous_biens_plaine.krn
C: Jean Japart
%%abc-version 2.0
%%abcx-abcm2ps-target-version 5.9.1 (29 Sep 2008)
%%abc-creator hum2abc beta
%%abcx-conversion-date 2019/02/16 20:40:05
%%abc-edited-by Jesse Rodin
%%abc-edited-by Chris Gage 09-04-2013
%%abcx-initial-encoding-date 2013/10/22/
%%humdrum-veritas 3499767967
%%humdrum-veritas-data 1452277124
%%linebreak <none>
%%barnumbers 0
L: 1/4
M: 2/1
Q: 1/2=120
%%staves [1 2 3 4]
V: 1 clef=treble
V: 2 clef=treble-8
V: 3 clef=treble-8
V: 4 clef=bass
K: F
[V:1] G8 | 
[V:2] d8- | 
[V:3] G6FE | 
[V:4] z8 | 
[V:1] F3GA2B2- | 
[V:2] d8 | 
[V:3] D3EF2G2- | 
[V:4] z8 | 
[V:1] B2AGF2G2- | 
[V:2] B8 | 
[V:3] GABcd2cd | 
[V:4] z8 | 
[V:1] GFA3E^F2 | 
[V:2] c8 | 
[V:3] _edcBA4 | 
[V:4] z8 | 
[V:1] G4z4 | 
[V:2] d4B4- | 
[V:3] G4D4 | 
[V:4] G,,6D,2 | 
[V:1] G4A4 | 
[V:2] B4A4 | 
[V:3] z4c4 | 
[V:4] E,2G,4F,2 | 
[V:1] B2G4FE | 
[V:2] G8 | 
[V:3] B2d4cB | 
[V:4] G,2G,,2B,,2C,2 | 
[V:1] FEDCB,2D2- | 
[V:2] F4G4 | 
[V:3] A4G2B2- | 
[V:4] D,4z2G,2- | 
[V:1] DEF3DG2- | 
[V:2] B8 | 
[V:3] Bcd4B2 | 
[V:4] G,2F,2D,2_E,2 | 
[V:1] G2FED4- | 
[V:2] A4B4 | 
[V:3] c4F2B2- | 
[V:4] C,4B,,4- | 
[V:1] D2E3FG2- | 
[V:2] G8 | 
[V:3] B2G2c2B2 | 
[V:4] B,,2C,4_E,2 | 
[V:1] G2^F2G4- | 
[V:2] A4G4 | 
[V:3] d4B3A | 
[V:4] D,4G,,4 | 
[V:1] G2B4G2 | 
[V:2] d8 | 
[V:3] GFG3AB2 | 
[V:4] z8 | 
[V:1] A2B2cBAG | 
[V:2] c8 | 
[V:3] A2GFE4 | 
[V:4] z4G,4 | 
[V:1] F2G2B2A2- | 
[V:2] d8- | 
[V:3] D2G4A2 | 
[V:4] A,2B,2G,2F,2 | 
[V:1] A2G2A2B2- | 
[V:2] d8 | 
[V:3] B3AF2B2 | 
[V:4] G,3F,D,2G,2- | 
[V:1] B2AG^F4 | 
[V:2] z4d4 | 
[V:3] G2A4B2 | 
[V:4] G,2F,E,D,4 | 
[V:1] G4z2C2 | 
[V:2] _e4_e4 | 
[V:3] c6BA | 
[V:4] C,8 | 
[V:1] D2G3FG2 | 
[V:2] B8 | 
[V:3] G2FED4 | 
[V:4] z4G,,4 | 
[V:1] E2F2D2E2- | 
[V:2] c4G4- | 
[V:3] C4z4 | 
[V:4] A,,4B,,2C,2- | 
[V:1] EDG4F2 | 
[V:2] G4A4 | 
[V:3] c4d4 | 
[V:4] C,2_E,2D,4 | 
[V:1] B3cd4 | 
[V:2] G8 | 
[V:3] _e2d4G2 | 
[V:4] z2G,4B,2 | 
[V:1] c2A4G2 | 
[V:2] c4B4 | 
[V:3] A4G2E2 | 
[V:4] A,2F,2G,4 | 
[V:1] A2F3GA2- | 
[V:2] A8 | 
[V:3] F4D4 | 
[V:4] D,6F,2- | 
[V:1] ABc3BAG | 
[V:2] c8 | 
[V:3] z4G4 | 
[V:4] F,2E,D,E,4 | 
[V:1] F2D4C2 | 
[V:2] d4e4 | 
[V:3] A2F2E2DC | 
[V:4] D,4z4 | 
[V:1] D2CB,A,4 | 
[V:2] f8 | 
[V:3] B,2C2D4 | 
[V:4] z8 | 
[V:1] z2G,2B,2C2 | 
[V:2] g8- | 
[V:3] E2G3FE2 | 
[V:4] G,,6C,2- | 
[V:1] D4E2G2- | 
[V:2] g8 | 
[V:3] D4z2C2- | 
[V:4] C,2B,,2C,2_E,2- | 
[V:1] GFE4D2 | 
[V:2] z4G4 | 
[V:3] CDE3FG2- | 
[V:4] E,D,C,3B,,A,,G,, | 
[V:1] C3B,D4 | 
[V:2] A4B4 | 
[V:3] G2^F2G4 | 
[V:4] A,,4G,,4 | 
[V:1] F3GA2B2 | 
[V:2] d8 | 
[V:3] D4z2D2 | 
[V:4] z8 | 
[V:1] A2G4^F2 | 
[V:2] c8 | 
[V:3] F2G2A4 | 
[V:4] z8 | 
[V:1] G6D2- | 
[V:2] d4B4- | 
[V:3] G6B2- | 
[V:4] G,,6G,2- | 
[V:1] D2E2F4- | 
[V:2] B4A4 | 
[V:3] B2AGF3G | 
[V:4] G,2F,2D,2F,2- | 
[V:1] F4E4 | 
[V:2] c8 | 
[V:3] A2B2c2A2 | 
[V:4] F,2E,D,C,4 | 
[V:1] D4A4 | 
[V:2] d8 | 
[V:3] B4A4 | 
[V:4] B,,2G,,4^F,,2 | 
[V:1] G2B3AA2- | 
[V:2] B4c4 | 
[V:3] z2d2c2A2 | 
[V:4] G,,2G,2E,2F,2 | 
[V:1] A2G2A2B2- | 
[V:2] _e4d4- | 
[V:3] B4A2d2- | 
[V:4] G,4D,4 | 
[V:1] B2G4A2- | 
[V:2] d4_e4 | 
[V:3] d2B2G2c2 | 
[V:4] B,,4C,4 | 
[V:1] AGG4^F2 | 
[V:2] d8- | 
[V:3] B2AGA4 | 
[V:4] D,8 | 
[V:1] G4D2G2- | 
[V:2] d8 | 
[V:3] G8 | 
[V:4] G,,8 | 
[V:1] G2F2D2F2 | 
[V:2] z4d4 | 
[V:3] z4D4 | 
[V:4] B,,8 | 
[V:1] E2C4G2- | 
[V:2] c4e4 | 
[V:3] E3FG3A | 
[V:4] C,8 | 
[V:1] GAB3cd2- | 
[V:2] d4g4 | 
[V:3] B2G3FE2 | 
[V:4] G,,4z4 | 
[V:1] d2cBA4 | 
[V:2] f8 | 
[V:3] D2d3cd2 | 
[V:4] z4D,4 | 
[V:1] G4D4 | 
[V:2] g8- | 
[V:3] G2B4A2 | 
[V:4] E,2G,4F,2 | 
[V:1] E2G3FED | 
[V:2] g8 | 
[V:3] B2c2d4 | 
[V:4] E,2D,C,B,,4 | 
[V:1] E2DC=B,3A, | 
[V:2] z4g4 | 
[V:3] c2e2d4 | 
[V:4] C,4G,,4 | 
[V:1] C4z2c2- | 
[V:2] e8 | 
[V:3] c4G4 | 
[V:4] C,8 | 
[V:1] c2=BA=B4 | 
[V:2] d4d4 | 
[V:3] z4G4- | 
[V:4] G,8 | 
[V:1] c2A3GG2- | 
[V:2] c4B4 | 
[V:3] G2A2B2c2 | 
[V:4] C,4G,4 | 
[V:1] G2^F2G4 | 
[V:2] A4G4- | 
[V:3] d4D2E2- | 
[V:4] D,4G,,2C,2- | 
[V:1] z4A4 | 
[V:2] G4^F4 | 
[V:3] EDD4C2 | 
[V:4] C,2B,,2A,,4 | 
[V:1] D6F2- | 
[V:2] G4B4- | 
[V:3] D4d4- | 
[V:4] G,,6D,2- | 
[V:1] F2G2A4 | 
[V:2] B4A4 | 
[V:3] d4c4 | 
[V:4] D,2G,4^F,2 | 
[V:1] B2G4F2 | 
[V:2] G4A4 | 
[V:3] B2d3cA2 | 
[V:4] G,4D,4 | 
[V:1] G2D2G2B2 | 
[V:2] G4B4 | 
[V:3] B2G3FG2 | 
[V:4] G,,8 | 
[V:1] A2c3BAG | 
[V:2] c8 | 
[V:3] A2GFE4 | 
[V:4] z4A,,4 | 
[V:1] F2G2B2A2- | 
[V:2] d8- | 
[V:3] D2G4F2 | 
[V:4] B,,2G,,4D,2 | 
[V:1] AGG4^F2 | 
[V:2] d8- | 
[V:3] G2B2A4 | 
[V:4] B,,2G,,2D,4 | 
[V:1] G8 |]  
[V:2] d8 |]  
[V:3] G8 |]  
[V:4] G,,8 |]  



